X: 20872
P: The Drunken Peasant.
M: 2/4
L: 1/16
K: D
[|\
.D4 .A4 | FGAF D4 | .A4 .d4 | cdec A2(fg) |\
a2A2 a2gf | g2G2 g2(fe) | f2ed c2d2 | .e4 .e4 |]
[|\
(A2Bc) defg | a2c2d2g2 | .f4 .e4 | edBA ^GABc |]
K: Dm
[|"^Minore."\
d2f2 efge | f2a2 a4 | d2f2 gfed | ^cdec A4 |\
d2f2 efge | g2a2 a4 | e2g2 fed^c | d4 D4 |]
K: D
[|"^Major."\
.D4 .A4 | FGAF D4 | .A4 .d4 | cdec A2(fg) |\
a2A2 a2gf | g2G2 g2(fe) | f2ed A2c2 | d4 d4 H|]


